static/images/washing-hands.svg

<svg enable-background="new 0 0 64 64" viewBox="0 0 64 64" xmlns="http://www.w3.org/2000/svg"><g fill="#62c4c3"><path d="m11 17c0 1.657-1.343 3-3 3s-3-1.343-3-3 1.343-3 3-3 3 1.343 3 3z"/><path d="m7 8c0 1.104-.896 2-2 2s-2-.896-2-2 .896-2 2-2 2 .896 2 2z"/><path d="m20 9c0 2.209-1.343 3-3 3s-3-.791-3-3 3-6 3-6 3 3.791 3 6z"/><path d="m29 13c0 2.209-1.343 3-3 3s-3-.791-3-3 3-6 3-6 3 3.791 3 6z"/></g><path d="m25 23c-.55 0-1.05-.22-1.41-.59-.37-.36-.59-.86-.59-1.41 0-1.1.9-2 2-2h14v-1l-2.38-2.38c-.4-.4-.62-.94-.62-1.5 0-.58.24-1.12.62-1.5s.92-.62 1.5-.62c.56 0 1.1.22 1.5.62l5.38 5.38v1h17v16h-35c-.55 0-1.05-.22-1.41-.59-.37-.36-.59-.86-.59-1.41 0-1.1.9-2 2-2h-2c-.55 0-1.05-.22-1.41-.59-.37-.36-.59-.86-.59-1.41 0-1.1.9-2 2-2h-2c-.55 0-1.05-.22-1.41-.59-.37-.36-.59-.86-.59-1.41 0-1.1.9-2 2-2z" fill="#e0c494"/><path d="m36 41c-2.761 0-5 2.238-5 5h-8c0-1.226-.369-2.364-1-3.314v-6.686h10v-7c2.761 0 5-2.238 5-5s-2.239-5-5-5c-1.792 0-3.351.95-4.233 2.366-1.097-1.435-2.821-2.366-4.767-2.366-3.078 0-5.611 2.319-5.957 5.305-.646-.198-1.332-.305-2.043-.305-3.866 0-7 3.134-7 7 0 1.494.472 2.877 1.27 4.014-.09-.004-.179-.014-.27-.014-3.313 0-6 2.687-6 6s2.687 6 6 6c.715 0 1.398-.132 2.035-.361.319 3.013 2.867 5.361 5.965 5.361 1.539 0 2.938-.584 4-1.537v4.537c0 1.104.896 2 2 2s2-.896 2-2v-3c0-1.104.896-2 2-2s2 .896 2 2v7c0 1.104.896 2 2 2s2-.896 2-2v-9.022c.838.632 1.869 1.022 3 1.022 2.761 0 5-2.238 5-5s-2.239-5-5-5z" fill="#e7f4f7"/><path d="m16 34c-.55 0-1.05-.22-1.41-.59-.37-.36-.59-.86-.59-1.41 0-1.1.9-2 2-2h14v-1l-2.38-2.38c-.4-.4-.62-.94-.62-1.5 0-.58.24-1.12.62-1.5s.92-.62 1.5-.62c.56 0 1.1.22 1.5.62l5.38 5.38v1h26v16h-44c-.55 0-1.05-.22-1.41-.59-.37-.36-.59-.86-.59-1.41 0-1.1.9-2 2-2h-2c-.55 0-1.05-.22-1.41-.59-.37-.36-.59-.86-.59-1.41 0-1.1.9-2 2-2h-2c-.55 0-1.05-.22-1.41-.59-.37-.36-.59-.86-.59-1.41 0-1.1.9-2 2-2z" fill="#f2daae"/><path d="m16 33h13v2h-13z" fill="#e0c494"/><path d="m16 37h13v2h-13z" fill="#e0c494"/><path d="m18 41h11v2h-11z" fill="#e0c494"/><path d="m15.106 11.484c.518.353 1.172.516 1.894.516 1.657 0 3-.791 3-3 0-.931-.535-2.143-1.152-3.234-.446 2.643-1.87 4.783-3.742 5.718z" fill="#42a5b2"/><path d="m24.106 15.484c.518.353 1.172.516 1.894.516 1.657 0 3-.791 3-3 0-.931-.535-2.143-1.152-3.234-.446 2.643-1.87 4.783-3.742 5.718z" fill="#42a5b2"/></svg>

<?xml version="1.0" ?><svg id="_x31_-outline-expand" style="enable-background:new 0 0 64 64;" version="1.1" viewBox="0 0 64 64" xml:space="preserve" xmlns="http://www.w3.org/2000/svg" xmlns:xlink="http://www.w3.org/1999/xlink"><path d="M11,17c0,1.657-1.343,3-3,3c-1.657,0-3-1.343-3-3c0-1.657,1.343-3,3-3C9.657,14,11,15.343,11,17  L11,17z" style="fill:#62C4C3;"/><path d="M7,8c0,1.104-0.896,2-2,2c-1.104,0-2-0.896-2-2c0-1.104,0.896-2,2-2C6.104,6,7,6.896,7,8L7,8z" style="fill:#62C4C3;"/><path d="M20,9c0,2.209-1.343,3-3,3c-1.657,0-3-0.791-3-3c0-2.209,3-6,3-6S20,6.791,20,9L20,9z" style="fill:#62C4C3;"/><path d="M29,13c0,2.209-1.343,3-3,3c-1.657,0-3-0.791-3-3c0-2.209,3-6,3-6S29,10.791,29,13L29,13z" style="fill:#62C4C3;"/><path d="M25,23c-0.55,0-1.05-0.22-1.41-0.59C23.22,22.05,23,21.55,23,21c0-1.1,0.9-2,2-2h14v-1l-2.38-2.38  c-0.4-0.4-0.62-0.94-0.62-1.5c0-0.58,0.24-1.12,0.62-1.5C37,12.24,37.54,12,38.12,12c0.56,0,1.1,0.22,1.5,0.62L45,18v1h17v16H27  c-0.55,0-1.05-0.22-1.41-0.59C25.22,34.05,25,33.55,25,33c0-1.1,0.9-2,2-2h-2c-0.55,0-1.05-0.22-1.41-0.59  C23.22,30.05,23,29.55,23,29c0-1.1,0.9-2,2-2h-2c-0.55,0-1.05-0.22-1.41-0.59C21.22,26.05,21,25.55,21,25c0-1.1,0.9-2,2-2H25z" style="fill:#E0C494;"/><path d="M36,41c-2.761,0-5,2.238-5,5h-8c0-1.226-0.369-2.364-1-3.314V36h10v-7c2.761,0,5-2.238,5-5  c0-2.762-2.239-5-5-5c-1.792,0-3.351,0.95-4.233,2.366C26.67,19.931,24.946,19,23,19c-3.078,0-5.611,2.319-5.957,5.305  C16.397,24.107,15.711,24,15,24c-3.866,0-7,3.134-7,7c0,1.494,0.472,2.877,1.27,4.014C9.18,35.01,9.091,35,9,35  c-3.313,0-6,2.687-6,6c0,3.313,2.687,6,6,6c0.715,0,1.398-0.132,2.035-0.361C11.354,49.652,13.902,52,17,52  c1.539,0,2.938-0.584,4-1.537V55c0,1.104,0.896,2,2,2c1.104,0,2-0.896,2-2v-3c0-1.104,0.896-2,2-2c1.104,0,2,0.896,2,2v7  c0,1.104,0.896,2,2,2c1.104,0,2-0.896,2-2v-9.022C33.838,50.61,34.869,51,36,51c2.761,0,5-2.238,5-5S38.761,41,36,41L36,41z" style="fill:#E7F4F7;"/><path d="M16,34c-0.55,0-1.05-0.22-1.41-0.59C14.22,33.05,14,32.55,14,32c0-1.1,0.9-2,2-2h14v-1l-2.38-2.38  c-0.4-0.4-0.62-0.94-0.62-1.5c0-0.58,0.24-1.12,0.62-1.5C28,23.24,28.54,23,29.12,23c0.56,0,1.1,0.22,1.5,0.62L36,29v1h26v16H18  c-0.55,0-1.05-0.22-1.41-0.59C16.22,45.05,16,44.55,16,44c0-1.1,0.9-2,2-2h-2c-0.55,0-1.05-0.22-1.41-0.59  C14.22,41.05,14,40.55,14,40c0-1.1,0.9-2,2-2h-2c-0.55,0-1.05-0.22-1.41-0.59C12.22,37.05,12,36.55,12,36c0-1.1,0.9-2,2-2H16z" style="fill:#F2DAAE;"/><rect height="2" style="fill:#E0C494;" width="13" x="16" y="33"/><rect height="2" style="fill:#E0C494;" width="13" x="16" y="37"/><rect height="2" style="fill:#E0C494;" width="11" x="18" y="41"/><path d="M15.106,11.484C15.624,11.837,16.278,12,17,12c1.657,0,3-0.791,3-3c0-0.931-0.535-2.143-1.152-3.234  C18.402,8.409,16.978,10.549,15.106,11.484z" style="fill:#42A5B2;"/><path d="M24.106,15.484C24.624,15.837,25.278,16,26,16c1.657,0,3-0.791,3-3c0-0.931-0.535-2.143-1.152-3.234  C27.402,12.409,25.978,14.549,24.106,15.484z" style="fill:#42A5B2;"/></svg>
